X:041
U: ~ = !turn!
%%topmargin 3cm
T:Crowley's #2
B:Traditional Irish Fiddle Tunes. Randy Miller and Jack Perron.
Z:Transcribed by Ralph Palmer
S:Michael Coleman
R:Reel
L:1/8
M:C|
K:D
fd (3.d.e.d eB (3.B.c.B | ((3 dcB) ((3cBA) BAFA | JB2 AF AFDF | ((3GFE) ((3FED) EB, B,2 |
fd (3.d.e.d eB (3.B.c.B | ((3 dcB) ((3cBA) BAFA | JB2 AF AFDF | ((3EFG) AG FD D2 ||
|: d2 {/e}dc dAFA | ((3Bcd) Bd cAFA | BdAF GBFA | EFGA FD D2 :|]
